public/media/theme/icon-doc.svg

<?xml version="1.0" encoding="UTF-8"?>
<svg width="15px" height="18px" viewBox="0 0 15 18" version="1.1" xmlns="http://www.w3.org/2000/svg" xmlns:xlink="http://www.w3.org/1999/xlink">
    <!-- Generator: Sketch 43.1 (39012) - http://www.bohemiancoding.com/sketch -->
    <title>DOC Icon</title>
    <desc>Created with Sketch.</desc>
    <defs>
        <path d="M8.92893219,1 L3.00335124,1 C1.34237885,1 0,2.34320226 0,4.00012623 L0,14.9998738 C0,16.6660385 1.34464615,18 3.00335124,18 L10.9966488,18 C12.6576211,18 14,16.6567977 14,14.9998738 L14,6.07106781 L8.92893219,1 Z" id="path-1"></path>
        <path d="M14.3933983,7 L11.0033512,7 C9.34464615,7 8,5.66603851 8,3.99987377 L8,0.606601718 L14.3933983,7 Z" id="path-2"></path>
    </defs>
    <g id="Screens---Source-Sans-Pro" stroke="none" stroke-width="1" fill="none" fill-rule="evenodd">
        <g id="30---First-Touch-with-App" transform="translate(-916.000000, -797.000000)">
            <g id="Recently-Opened" transform="translate(804.000000, 566.000000)">
                <g id="Content" transform="translate(31.000000, 79.000000)">
                    <g id="Row" transform="translate(0.000000, 142.000000)">
                        <g id="DOC-Icon" transform="translate(81.000000, 10.000000)">
                            <g id="Base">
                                <g>
                                    <use fill="#F4FBFE" fill-rule="evenodd" xlink:href="#path-1"></use>
                                    <path stroke="#00AAFF" stroke-width="1" d="M8.72182541,1.5 L13.5,6.27817459 L13.5,14.9998738 C13.5,16.3813761 12.3807576,17.5 10.9966488,17.5 L3.00335124,17.5 C1.61722877,17.5 0.5,16.3863454 0.5,14.9998738 L0.5,4.00012623 C0.5,2.6186239 1.61924244,1.5 3.00335124,1.5 L8.72182541,1.5 Z"></path>
                                </g>
                                <g id="Part">
                                    <use fill="#F4FBFE" fill-rule="evenodd" xlink:href="#path-2"></use>
                                    <path stroke="#00AAFF" stroke-width="1" d="M13.1862915,6.5 L11.0033512,6.5 C9.61722877,6.5 8.5,5.38634535 8.5,3.99987377 L8.5,1.8137085 L13.1862915,6.5 Z"></path>
                                </g>
                            </g>
                            <text id="DOC" font-family="SourceSansPro-Bold, Source Sans Pro" font-size="4" font-weight="bold" fill="#00AAFF">
                                <tspan x="3" y="13">DOC</tspan>
                            </text>
                        </g>
                    </g>
                </g>
            </g>
        </g>
    </g>
</svg>

<svg width="15" height="18" viewBox="0 0 15 18" xmlns="http://www.w3.org/2000/svg" xmlns:xlink="http://www.w3.org/1999/xlink"><title>DOC Icon</title><defs><path d="M8.929 1H3.003A3 3 0 0 0 0 4v11c0 1.666 1.345 3 3.003 3h7.994A3 3 0 0 0 14 15V6.07L8.929 1z" id="a"/><path d="M14.393 7h-3.39A2.996 2.996 0 0 1 8 4V.607L14.393 7z" id="b"/></defs><g fill="none" fill-rule="evenodd"><use fill="#F4FBFE" xlink:href="#a"/><path stroke="#0AF" d="M8.722 1.5L13.5 6.278V15a2.5 2.5 0 0 1-2.503 2.5H3.003A2.496 2.496 0 0 1 .5 15V4a2.5 2.5 0 0 1 2.503-2.5h5.719z"/><use fill="#F4FBFE" xlink:href="#b"/><path stroke="#0AF" d="M13.186 6.5h-2.183A2.496 2.496 0 0 1 8.5 4V1.814L13.186 6.5z"/><text font-family="SourceSansPro-Bold, Source Sans Pro" font-size="4" font-weight="bold" fill="#0AF"><tspan x="3" y="13">DOC</tspan></text></g></svg>
